img/svg/partner.svg

<svg width="78" height="78" viewBox="0 0 78 78" fill="none" xmlns="http://www.w3.org/2000/svg">
<g clip-path="url(#clip0)">
<path d="M62.2139 19.6404C62.8084 19.0447 62.8084 18.0801 62.2139 17.4862C61.6182 16.8905 60.6542 16.8905 60.0597 17.4862C59.464 18.0801 59.464 19.0447 60.0597 19.6404C60.6542 20.2343 61.6182 20.2343 62.2139 19.6404Z" fill="white"/>
<path d="M19.8791 22.7951C20.4736 22.2012 20.4736 21.2365 19.8791 20.6409C19.2834 20.047 18.3193 20.047 17.7248 20.6409C17.1291 21.2365 17.1291 22.2012 17.7248 22.7951C18.3193 23.3908 19.2834 23.3908 19.8791 22.7951Z" fill="white"/>
<path d="M10.914 31.5674L15.4736 27.006C16.0687 26.4109 16.0681 25.4468 15.4736 24.8517C14.8785 24.2566 13.9139 24.2572 13.3188 24.8517L8.75917 29.4131C8.16467 30.0082 8.16467 30.9729 8.75976 31.5674C9.35426 32.1625 10.3189 32.1625 10.914 31.5674Z" fill="white"/>
<path d="M67.2396 27.1493C67.8347 27.7444 68.7993 27.7444 69.3944 27.1493C69.9895 26.5548 69.9895 25.5902 69.3944 24.9951L66.3553 21.956C65.7602 21.3609 64.7955 21.3609 64.2004 21.956C63.6059 22.5505 63.6059 23.5151 64.2004 24.1102L67.2396 27.1493Z" fill="white"/>
<path d="M77.5537 25.452L60.3204 8.2157C59.7384 7.63311 58.7981 7.61883 58.1989 8.18416C56.8605 9.44517 50.5698 15.3693 50.4787 15.458C50.4734 15.4633 50.4674 15.4681 50.4621 15.4735C48.9719 16.9636 47.505 17.6277 45.7055 17.6277C42.0266 17.6277 39.2083 18.6667 36.8678 20.8834C34.9486 19.066 32.7735 18.1264 29.738 17.8128L22.122 10.1962C21.5269 9.60108 20.5622 9.60108 19.9671 10.1962L0.446296 29.7176C-0.133325 30.2966 -0.152368 31.2321 0.412375 31.8349C0.424277 31.8474 0.434394 31.8599 0.446296 31.8718C0.446296 31.8718 13.1491 44.555 13.167 44.5723L12.629 45.1103C10.5462 47.1931 10.545 50.5661 12.6296 52.6507C13.6163 53.6362 14.9719 54.2217 16.4549 54.2069C16.4388 55.6702 17.0042 57.0252 18.0158 58.0369C19.0435 59.0646 20.417 59.6097 21.8411 59.5948C21.8256 61.057 22.3903 62.4114 23.402 63.4231C24.3887 64.4085 25.7437 64.9941 27.2273 64.9792C27.2112 66.4426 27.7765 67.7976 28.7882 68.8092C30.8668 70.8879 34.2488 70.8879 36.328 68.8092L36.8672 68.2701L37.4063 68.8092C39.485 70.8879 42.8669 70.8879 44.9461 68.8092C45.9554 67.8 46.5219 66.4473 46.5077 64.9822C47.9627 64.9971 49.3183 64.4371 50.3329 63.4225C51.3862 62.3692 51.9052 60.9808 51.8909 59.5972C53.3679 59.6127 54.7176 59.0378 55.7185 58.0369C56.732 57.024 57.2961 55.6666 57.2794 54.2069C58.6952 54.2211 60.0716 53.6832 61.1053 52.6501C63.1887 50.5667 63.1887 47.1943 61.1053 45.1103L60.5679 44.5729C71.1897 33.963 57.7531 47.4103 77.5537 27.6062C78.1488 27.0111 78.1488 26.0471 77.5537 25.452ZM3.67824 30.7941L21.0448 13.4281L26.8976 19.2809L9.53455 36.6463L3.67824 30.7941ZM14.7833 50.4959C13.8906 49.6032 13.8906 48.1577 14.7833 47.2645L20.1701 41.8777C21.0615 40.9869 22.5106 40.9875 23.4014 41.8777C24.2958 42.7727 24.2958 44.2158 23.4014 45.1103L18.0164 50.4953C17.125 51.3855 15.6741 51.3855 14.7833 50.4959ZM20.1701 55.8826C19.2768 54.9888 19.2756 53.5439 20.1701 52.6501L25.5556 47.2645C26.4501 46.3707 27.8938 46.3701 28.7882 47.2645C29.679 48.1554 29.6826 49.6014 28.7882 50.4953C28.7876 50.4959 28.7876 50.4959 28.7876 50.4965L23.4014 55.8826C22.5106 56.7735 21.0609 56.7735 20.1701 55.8826ZM25.5556 61.2676C24.663 60.3756 24.663 58.9295 25.5556 58.0369L30.9424 52.6501C31.8333 51.7592 33.2823 51.7592 34.1744 52.6513C35.0539 53.529 35.0801 54.9751 34.1738 55.882C34.1738 55.882 34.1738 55.882 34.1732 55.8826L28.7888 61.267C27.8973 62.1579 26.4465 62.1579 25.5556 61.2676ZM30.9424 66.655C30.0492 65.7612 30.048 64.3163 30.9424 63.4225L36.328 58.0369C37.2212 57.1436 38.6661 57.1425 39.56 58.0369C40.4591 58.9361 40.446 60.3827 39.56 61.2682L34.1738 66.655C33.2823 67.5453 31.8333 67.5453 30.9424 66.655ZM42.7913 66.655C41.9011 67.5459 40.4514 67.5459 39.5606 66.655L39.0214 66.1159L41.7148 63.4225C41.8969 63.2404 42.0611 63.0458 42.2135 62.844L42.7907 63.4219C42.7913 63.4219 42.7913 63.4219 42.7919 63.4225L42.7925 63.4231C43.6857 64.3163 43.6857 65.7606 42.7913 66.655ZM58.9511 50.4953C58.0596 51.3855 56.6094 51.3855 55.7185 50.4953L48.7166 43.494C48.1216 42.8989 47.1569 42.8989 46.5618 43.494C45.9673 44.0885 45.9673 45.0531 46.5618 45.6482L53.5643 52.6507C54.4575 53.5433 54.4581 54.9882 53.5637 55.8826C52.6693 56.7771 51.2238 56.7735 50.3329 55.8826L43.3311 48.879C42.7366 48.2845 41.7719 48.2845 41.1768 48.879C40.5817 49.4741 40.5817 50.4387 41.1762 51.0338L48.1781 58.0369C49.0689 58.9277 49.0689 60.3774 48.1781 61.2676C47.7472 61.6991 47.173 61.9371 46.5618 61.9371C45.114 61.9371 44.6474 60.7969 43.2745 59.5966C43.2608 58.1934 42.7086 56.8764 41.7154 55.8832C40.7049 54.8716 39.3517 54.3068 37.8895 54.3211C37.9044 52.8566 37.3373 51.5034 36.328 50.4953C35.2747 49.442 33.8863 48.9236 32.5028 48.9379C32.5331 45.9333 30.0998 43.5184 27.1172 43.5493C27.132 42.0693 26.5536 40.7215 25.5556 39.7235C23.477 37.6442 20.0945 37.6442 18.0158 39.7235L15.3212 42.4181L11.6912 38.7987L29.6213 20.8656C31.8416 21.1191 33.3365 21.7576 34.707 23.0317L30.4027 27.3354C28.0288 29.7111 28.0288 33.5768 30.4033 35.9536C32.7795 38.328 36.6458 38.3286 39.0214 35.953L43.3311 31.6439C46.1161 34.4295 56.9206 45.2346 58.9505 47.2651C59.8413 48.1554 59.8413 49.605 58.9511 50.4953ZM58.4131 42.4181L45.4853 29.4897L46.5624 28.4126C47.1575 27.8175 47.1575 26.8528 46.5624 26.2577C45.9673 25.6632 45.0033 25.6632 44.4076 26.2577L36.8666 33.7993C35.6794 34.9866 33.7453 34.9866 32.5575 33.7993C31.3703 32.6109 31.3703 30.6775 32.5569 29.4897C34.1196 27.9276 37.1998 24.848 38.7607 23.2876C40.5675 21.4809 42.7098 20.6746 45.7055 20.6746C47.8603 20.6746 49.7206 20.0271 51.4636 18.656L66.6331 34.2195C56.7171 44.1099 58.6743 42.1574 58.4131 42.4181ZM68.7879 32.0646L53.7119 16.597L59.2117 11.4155L74.3223 26.5291L68.7879 32.0646Z" fill="white"/>
</g>
<defs>
<clipPath id="clip0">
<rect width="78" height="78" fill="white"/>
</clipPath>
</defs>
</svg>

<svg width="78" height="78" viewBox="0 0 78 78" fill="none" xmlns="http://www.w3.org/2000/svg"><g clip-path="url(#a)" fill="#fff"><path d="M62.214 19.64a1.524 1.524 0 1 0-2.156-2.154 1.524 1.524 0 0 0 2.156 2.154zM19.88 22.795a1.524 1.524 0 1 0-2.157-2.154 1.524 1.524 0 0 0 2.156 2.154zm-8.966 8.772l4.56-4.561a1.523 1.523 0 1 0-2.155-2.154l-4.56 4.561a1.523 1.523 0 0 0 2.155 2.154zM67.24 27.15a1.524 1.524 0 0 0 2.154-2.155l-3.039-3.039A1.524 1.524 0 0 0 64.2 24.11l3.04 3.04z"/><path d="M77.554 25.452L60.32 8.216a1.522 1.522 0 0 0-2.121-.032c-1.338 1.261-7.63 7.185-7.72 7.274l-.017.015c-1.49 1.49-2.957 2.155-4.757 2.155-3.678 0-6.497 1.039-8.837 3.255-1.92-1.817-4.095-2.757-7.13-3.07l-7.616-7.617a1.524 1.524 0 0 0-2.155 0L.447 29.718a1.52 1.52 0 0 0-.035 2.117l.034.037 12.721 12.7-.538.538a5.33 5.33 0 0 0 3.826 9.097 5.291 5.291 0 0 0 1.56 3.83 5.309 5.309 0 0 0 3.826 1.558 5.291 5.291 0 0 0 1.561 3.828 5.312 5.312 0 0 0 3.825 1.556 5.29 5.29 0 0 0 1.561 3.83 5.338 5.338 0 0 0 7.54 0l.54-.539.538.54a5.338 5.338 0 0 0 7.54 0 5.295 5.295 0 0 0 1.562-3.828 5.29 5.29 0 0 0 3.825-1.56 5.315 5.315 0 0 0 1.558-3.825 5.29 5.29 0 0 0 3.828-1.56 5.29 5.29 0 0 0 1.56-3.83 5.329 5.329 0 0 0 3.826-9.097l-.537-.537c10.622-10.61-2.815 2.837 16.986-16.967a1.523 1.523 0 0 0 0-2.154zM3.678 30.794l17.367-17.366 5.853 5.853L9.535 36.646l-5.857-5.852zm11.105 19.702a2.284 2.284 0 0 1 0-3.232l5.387-5.386a2.288 2.288 0 0 1 3.231 0 2.283 2.283 0 0 1 0 3.232l-5.385 5.385c-.891.89-2.342.89-3.233 0zm5.387 5.387a2.283 2.283 0 0 1 0-3.233l5.386-5.386a2.283 2.283 0 0 1 3.232 0 2.283 2.283 0 0 1 0 3.231v.002L23.4 55.883c-.89.89-2.34.89-3.23 0zm5.386 5.385a2.284 2.284 0 0 1 0-3.231l5.386-5.387c.891-.89 2.34-.89 3.232.001.88.878.906 2.324 0 3.231l-5.385 5.385a2.29 2.29 0 0 1-3.233 0zm5.386 5.387a2.284 2.284 0 0 1 0-3.233l5.386-5.385a2.284 2.284 0 1 1 3.232 3.231l-5.386 5.387a2.29 2.29 0 0 1-3.232 0zm11.85 0c-.89.89-2.34.89-3.231 0l-.54-.54 2.694-2.692a5.54 5.54 0 0 0 .498-.579l.578.578.002.001a2.283 2.283 0 0 1-.002 3.232zm16.16-16.16a2.29 2.29 0 0 1-3.233 0l-7.002-7.001a1.524 1.524 0 0 0-2.155 2.154l7.002 7.003a2.283 2.283 0 0 1 0 3.232c-.895.894-2.34.89-3.231 0l-7.002-7.004a1.524 1.524 0 0 0-2.155 2.155l7.002 7.003a2.287 2.287 0 0 1-1.616 3.9c-1.448 0-1.915-1.14-3.287-2.34a5.29 5.29 0 0 0-1.56-3.714 5.29 5.29 0 0 0-3.826-1.562 5.289 5.289 0 0 0-1.561-3.826 5.315 5.315 0 0 0-3.825-1.557 5.326 5.326 0 0 0-5.386-5.389 5.292 5.292 0 0 0-1.561-3.825 5.336 5.336 0 0 0-7.54 0l-2.695 2.694-3.63-3.62 17.93-17.932c2.22.253 3.716.892 5.086 2.166l-4.304 4.303a6.104 6.104 0 0 0 0 8.619 6.103 6.103 0 0 0 8.618-.001l4.31-4.31 15.62 15.622c.89.89.89 2.34 0 3.23zm-.539-8.077L45.485 29.49l1.077-1.077a1.524 1.524 0 1 0-2.154-2.155l-7.541 7.541a3.052 3.052 0 0 1-4.31 0 3.053 3.053 0 0 1 0-4.31l6.204-6.201c1.806-1.807 3.949-2.613 6.944-2.613 2.155 0 4.016-.648 5.759-2.019l15.17 15.563c-9.917 9.89-7.96 7.938-8.22 8.2zm10.375-10.353L53.712 16.597l5.5-5.182 15.11 15.114-5.534 5.536z"/></g><defs><clipPath id="a"><path fill="#fff" d="M0 0h78v78H0z"/></clipPath></defs></svg>
